X: 1
T: Norrgimma
M: 4/4
L: 1/8
R: hornpipe
K: Cmaj
G2|E2 G2 C2 DE | F2 A2 D3 c | B2 cd G2 AB |c2 cB (3ABA G2|
E2 G2 C2 DE | F2 A2 D3 c | B2 cd G2 AB |c2 e2 c2 :|
EF|G2 EG c2 E2 | FEFG A2 A2 | G,2 B,D G2 B,2 | CDEF G2 EF |  
G2 EG c2 E2 | FEFG A2 A2 | G,2 B,D GFED | C2 c2 c2 :|
